icons/sperm_fill.svg

<svg width="48" height="48" viewBox="0 0 48 48" fill="none" xmlns="http://www.w3.org/2000/svg">
<path fill-rule="evenodd" clip-rule="evenodd" d="M29.587 16.4644C29.8918 16.1585 29.956 15.6941 29.8215 15.2837C29.1175 13.1352 29.8596 10.381 31.9015 8.33916C34.5891 5.6515 38.5109 5.21575 40.6611 7.36587C42.8112 9.516 42.3754 13.4378 39.6878 16.1255C37.6702 18.143 34.9572 18.8916 32.8203 18.2299C32.4137 18.1041 31.9577 18.1726 31.6572 18.4741L31.4171 18.715C30.7093 19.4757 29.713 19.8938 28.6981 19.8559L25.4738 19.7355C23.0102 19.6435 21.1662 22.1255 21.9831 24.4339L22.257 25.2077C23.5477 28.8548 20.6127 32.7695 16.7231 32.5889L14.7589 32.4976C13.7905 32.4526 13.0114 33.3498 13.1929 34.3008L13.5037 35.9292C13.9901 38.4778 12.1631 40.9752 9.56931 41.3075L8.10889 41.4946C7.28337 41.6004 6.53522 40.9992 6.46082 40.1702C6.39031 39.3846 6.95351 38.6837 7.73594 38.5835L9.30674 38.3823C10.1714 38.2715 10.7803 37.439 10.6182 36.5895L10.3074 34.961C9.76288 32.108 12.1003 29.4166 15.0054 29.5516L16.9697 29.6428C18.7376 29.7249 20.0717 27.9455 19.485 26.2877L19.2112 25.5139C17.694 21.2269 21.1186 16.6175 25.6939 16.7883L28.9182 16.9087C29.0632 16.9141 29.2055 16.8544 29.3066 16.7457L29.587 16.4644Z" fill="black"/>
</svg>

<svg
  xmlns="http://www.w3.org/2000/svg"
  width="24"
  height="24"
  viewBox="0 0 24 24"
  fill="none"
  stroke="currentColor"
  stroke-width="2"
  stroke-linecap="round"
  stroke-linejoin="round"
>
  <path
    fill-rule="evenodd"
    d="M29.587 16.464c.305-.305.369-.77.235-1.18-.704-2.149.038-4.903 2.08-6.945 2.687-2.687 6.609-3.123 8.76-.973s1.713 6.072-.974 8.76c-2.018 2.017-4.73 2.766-6.868 2.104-.406-.126-.862-.057-1.163.244l-.24.241a3.55 3.55 0 0 1-2.719 1.14l-3.224-.12c-2.464-.091-4.308 2.39-3.49 4.699l.273.774c1.29 3.647-1.644 7.562-5.534 7.38l-1.964-.09c-.969-.045-1.748.852-1.566 1.803l.31 1.628c.487 2.549-1.34 5.046-3.934 5.378l-1.46.188a1.467 1.467 0 1 1-.373-2.911l1.57-.202c.865-.11 1.474-.943 1.312-1.792l-.31-1.629c-.545-2.853 1.792-5.544 4.697-5.41l1.965.092c1.768.082 3.102-1.698 2.515-3.355l-.274-.774c-1.517-4.287 1.908-8.896 6.483-8.726l3.224.12a.5.5 0 0 0 .389-.162z"
    clip-rule="evenodd"
  />
</svg>
